X:2022
T:British Grenadiers
R:March
C:Trad.
O:England
M:4/4
L:1/4
Q:1/4=160
K:G
D|"G"G D G A|B2 "D"A B/c/|"G"d G "D7"B/A/ G/F/|"G"G3 D|"G"G D G A|B2 "D7"A B/c/|"G"d G "D7"B/A/ G/F/|"G"G3||
B/c/|"G"d>e d c|B c d d|"C"e e "Am"d/c/ B/A/|"G"G2 "D"F D/D/|"G"G F/G/ "D"A G/A/|"G"B A/B/ "D"c B/c/|"G"d G "D7"B/A/ G/F/|"G"G3|]

